public/images/icons/shop_1.svg

<svg width="40" height="45" viewBox="0 0 40 45" fill="none" xmlns="http://www.w3.org/2000/svg">
<g filter="url(#filter0_d_175_3981)">
<path d="M18.998 41.3623C18.2832 41.3623 17.623 40.9814 17.2656 40.3623L14.2676 35.168H11.4736C6.20801 35.168 1.9248 30.8848 1.9248 25.6191V10.5703C1.9248 5.30469 6.20801 1.02148 11.4736 1.02148H26.5225C31.7881 1.02148 36.0713 5.30469 36.0713 10.5703V25.6191C36.0713 30.8848 31.7881 35.168 26.5225 35.168H23.7285L20.7305 40.3623C20.373 40.9814 19.7129 41.3623 18.998 41.3623Z" fill="white"/>
<path d="M26.5225 3.02148H11.4736C7.30469 3.02148 3.9248 6.40125 3.9248 10.5704V25.6193C3.9248 29.7885 7.30469 33.1682 11.4736 33.1682H15.4219L18.998 39.3622L22.5742 33.1682H26.5225C30.6917 33.1682 34.0715 29.7885 34.0715 25.6193V10.5704C34.0715 6.40125 30.6917 3.02148 26.5225 3.02148Z" stroke="#3E68C6" stroke-width="1.5" stroke-linejoin="round"/>
<path d="M27.7357 12.1856C27.6699 12.1068 27.5877 12.0435 27.4947 12.0001C27.4018 11.9566 27.3004 11.9341 27.1978 11.9341H13.0626L12.5297 9.00484C12.5005 8.84334 12.4153 8.69725 12.2893 8.59211C12.1632 8.48687 12.0044 8.4292 11.8401 8.4292H9.67327C9.48737 8.4292 9.30904 8.50303 9.17763 8.63454C9.04613 8.76595 8.97229 8.94428 8.97229 9.13018C8.97229 9.31608 9.04613 9.49441 9.17763 9.62582C9.30904 9.75732 9.48737 9.83116 9.67327 9.83116H11.2505L13.4901 22.1237C13.556 22.4882 13.7172 22.8289 13.9571 23.1112C13.626 23.4205 13.387 23.8155 13.2666 24.2525C13.1461 24.6893 13.1491 25.151 13.2751 25.5863C13.4011 26.0216 13.6452 26.4134 13.9803 26.7185C14.3154 27.0236 14.7285 27.2299 15.1736 27.3144C15.6188 27.3991 16.0787 27.3587 16.5024 27.198C16.9261 27.0371 17.2969 26.7622 17.5739 26.4034C17.8508 26.0447 18.023 25.6163 18.0713 25.1658C18.1196 24.7152 18.0421 24.26 17.8475 23.8508H21.8274C21.6706 24.1791 21.5895 24.5384 21.5899 24.9022C21.5899 25.3875 21.7339 25.8618 22.0034 26.2653C22.273 26.6688 22.6562 26.9832 23.1045 27.1689C23.5528 27.3546 24.0461 27.4031 24.522 27.3085C24.9979 27.2139 25.435 26.9802 25.7782 26.6371C26.1213 26.2939 26.355 25.8568 26.4497 25.3809C26.5443 24.9049 26.4958 24.4116 26.31 23.9634C26.1243 23.515 25.8099 23.1318 25.4064 22.8623C25.003 22.5927 24.5286 22.4488 24.0434 22.4488H15.5589C15.3947 22.4488 15.2358 22.3911 15.1098 22.2859C14.9837 22.1807 14.8987 22.0347 14.8693 21.8732L14.5915 20.3459H24.7557C25.2482 20.3458 25.7251 20.1729 26.1031 19.8572C26.4812 19.5417 26.7364 19.1033 26.8245 18.6188L27.89 12.7604C27.908 12.6591 27.9035 12.5552 27.8769 12.4558C27.8502 12.3565 27.8021 12.2642 27.7357 12.1856ZM16.6831 24.9022C16.6831 25.1102 16.6214 25.3135 16.5059 25.4864C16.3903 25.6593 16.2261 25.7941 16.034 25.8737C15.8419 25.9532 15.6305 25.9741 15.4264 25.9335C15.2225 25.8929 15.0351 25.7928 14.8881 25.6457C14.7411 25.4987 14.6409 25.3113 14.6003 25.1074C14.5598 24.9033 14.5806 24.6919 14.6601 24.4999C14.7398 24.3077 14.8745 24.1435 15.0474 24.028C15.2204 23.9124 15.4236 23.8508 15.6316 23.8508C15.9105 23.8508 16.1779 23.9615 16.3751 24.1587C16.5723 24.3559 16.6831 24.6233 16.6831 24.9022ZM25.0948 24.9022C25.0948 25.1102 25.0331 25.3135 24.9176 25.4864C24.8021 25.6593 24.6379 25.7941 24.4457 25.8737C24.2537 25.9532 24.0422 25.9741 23.8382 25.9335C23.6343 25.8929 23.4469 25.7928 23.2998 25.6457C23.1528 25.4987 23.0526 25.3113 23.0121 25.1074C22.9715 24.9033 22.9924 24.6919 23.0719 24.4999C23.1515 24.3077 23.2863 24.1435 23.4592 24.028C23.6321 23.9124 23.8354 23.8508 24.0434 23.8508C24.3223 23.8508 24.5897 23.9615 24.7869 24.1587C24.9841 24.3559 25.0948 24.6233 25.0948 24.9022ZM25.4453 18.3683C25.4159 18.5301 25.3305 18.6766 25.2038 18.7818C25.0773 18.8872 24.9177 18.9445 24.7531 18.9439H14.3366L13.3175 13.3361H26.3574L25.4453 18.3683Z" fill="#3E68C6"/>
</g>
<defs>
<filter id="filter0_d_175_3981" x="0.924805" y="0.0214844" width="38.2217" height="44.6602" filterUnits="userSpaceOnUse" color-interpolation-filters="sRGB">
<feFlood flood-opacity="0" result="BackgroundImageFix"/>
<feColorMatrix in="SourceAlpha" type="matrix" values="0 0 0 0 0 0 0 0 0 0 0 0 0 0 0 0 0 0 127 0" result="hardAlpha"/>
<feOffset dx="1" dy="1"/>
<feGaussianBlur stdDeviation="1"/>
<feColorMatrix type="matrix" values="0 0 0 0 0 0 0 0 0 0 0 0 0 0 0 0 0 0 0.12 0"/>
<feBlend mode="normal" in2="BackgroundImageFix" result="effect1_dropShadow_175_3981"/>
<feBlend mode="normal" in="SourceGraphic" in2="effect1_dropShadow_175_3981" result="shape"/>
</filter>
</defs>
</svg>

<svg xmlns="http://www.w3.org/2000/svg" width="40" height="45" fill="none"><path fill="#fff" d="M18.998 41.362a2 2 0 0 1-1.732-1l-2.998-5.194h-2.794c-5.266 0-9.55-4.283-9.55-9.549V10.57c0-5.265 4.284-9.549 9.55-9.549h15.049c5.265 0 9.548 4.284 9.548 9.55v15.048c0 5.266-4.283 9.549-9.548 9.549h-2.794l-2.998 5.194a2 2 0 0 1-1.733 1Z"/><path stroke="#3E68C6" stroke-linejoin="round" stroke-width="1.5" d="M26.523 3.021h-15.05a7.549 7.549 0 0 0-7.548 7.55v15.048c0 4.17 3.38 7.55 7.549 7.55h3.948l3.576 6.193 3.576-6.194h3.948c4.17 0 7.55-3.38 7.55-7.549V10.57c0-4.169-3.38-7.549-7.55-7.549Z"/><path fill="#3E68C6" d="M27.736 12.186a.699.699 0 0 0-.538-.252H13.063l-.533-2.93a.7.7 0 0 0-.69-.575H9.673a.7.7 0 1 0 0 1.402h1.578l2.24 12.293c.065.364.226.705.466.987a2.454 2.454 0 1 0 3.89.74h3.98a2.454 2.454 0 1 0 2.216-1.402H15.56a.7.7 0 0 1-.69-.576l-.277-1.527h10.164a2.103 2.103 0 0 0 2.069-1.727l1.065-5.859a.702.702 0 0 0-.154-.574ZM16.683 24.902a1.052 1.052 0 1 1-2.103 0 1.052 1.052 0 0 1 2.103 0Zm8.412 0a1.052 1.052 0 1 1-2.104 0 1.052 1.052 0 0 1 2.104 0Zm.35-6.534a.7.7 0 0 1-.692.576H14.337l-1.02-5.608h13.04l-.912 5.032Z"/></svg>
